svg/material-icons/font_download_off/materialiconstwotone/20px.svg

<svg xmlns="http://www.w3.org/2000/svg" width="20" height="20" viewBox="0 0 20 20"><path d="m10.61 8.49-.57-1.63h-.09l-.25.72.91.91zm3.77 8.01-4.06-4.06H7.99L7.08 15H5.35L7.4 9.52l-3.9-3.9V16.5h10.88zM8.56 6.44 9.1 5h1.79l2.27 6.04 3.34 3.34V3.5H5.62l2.94 2.94z" opacity=".3"/><path d="M9.7 7.58 8.56 6.44 9.1 5h1.79l2.27 6.04-2.55-2.55-.57-1.63h-.09l-.25.72zm7.02 11.26-.84-.84H3.5c-.83 0-1.5-.67-1.5-1.5V4.12l-.84-.84 1.06-1.06 15.56 15.56-1.06 1.06zm-2.34-2.34-4.06-4.06H7.99L7.08 15H5.35L7.4 9.52l-3.9-3.9V16.5h10.88zm2.12-13v10.88l1.5 1.5V3.5c0-.83-.67-1.5-1.5-1.5H4.12l1.5 1.5H16.5z"/></svg>

<svg xmlns="http://www.w3.org/2000/svg" enable-background="new 0 0 20 20" height="20" viewBox="0 0 20 20" width="20"><rect fill="none" height="20" width="20"/><path d="M10.61,8.49l-0.57-1.63H9.95L9.7,7.58L10.61,8.49z M14.38,16.5l-4.06-4.06H7.99L7.08,15H5.35L7.4,9.52 l-3.9-3.9V16.5H14.38z M8.56,6.44L9.1,5h1.79l2.27,6.04l3.34,3.34V3.5H5.62L8.56,6.44z" opacity=".3"/><path d="M9.7,7.58L8.56,6.44L9.1,5h1.79l2.27,6.04l-2.55-2.55l-0.57-1.63H9.95L9.7,7.58z M16.72,18.84L15.88,18H3.5 C2.67,18,2,17.33,2,16.5V4.12L1.16,3.28l1.06-1.06l15.56,15.56L16.72,18.84z M14.38,16.5l-4.06-4.06H7.99L7.08,15H5.35L7.4,9.52 l-3.9-3.9V16.5H14.38z M16.5,3.5v10.88l1.5,1.5V3.5C18,2.67,17.33,2,16.5,2H4.12l1.5,1.5H16.5z"/></svg>
